; generated by PrusaSlicer 2.2.0+ on 2020-07-14 at 17:57:58 UTC

; 

; external perimeters extrusion width = 0.45mm
; perimeters extrusion width = 0.45mm
; infill extrusion width = 0.45mm
; solid infill extrusion width = 0.45mm
; top infill extrusion width = 0.40mm
; support material extrusion width = 0.35mm
; first layer extrusion width = 0.42mm

M73 P0 R91
M73 Q0 S91
M201 X1000 Y1000 Z1000 E5000 ; sets maximum accelerations, mm/sec^2
M203 X200 Y200 Z12 E120 ; sets maximum feedrates, mm/sec
M204 P1250 R1250 T1250 ; sets acceleration (P, T) and retract acceleration (R), mm/sec^2
M205 X8.00 Y8.00 Z0.40 E4.50 ; sets the jerk limits, mm/sec
M205 S0 T0 ; sets the minimum extruding and travel feed rate, mm/sec
M107
M862.3 P "MK3S" ; printer model check
M862.1 P0.4 ; nozzle diameter check
M115 U3.8.1 ; tell printer latest fw version
G90 ; use absolute coordinates
M83 ; extruder relative mode
M104 S215 ; set extruder temp
M140 S60 ; set bed temp
M190 S60 ; wait for bed temp
M109 S215 ; wait for extruder temp
G28 W ; home all without mesh bed level
G80 ; mesh bed leveling
G1 Y-3.0 F1000.0 ; go outside print area
G92 E0.0
G1 X60.0 E9.0 F1000.0 ; intro line
M73 Q0 S91
M73 P0 R91
G1 X100.0 E12.5 F1000.0 ; intro line
G92 E0.0
M221 S95
G21 ; set units to millimeters
G90 ; use absolute coordinates
M83 ; use relative distances for extrusion
M900 K30 ; Filament gcode
;BEFORE_LAYER_CHANGE
G92 E0.0
;0.2


G1 E-0.80000 F2100.00000
G1 Z0.600 F10800.000
;AFTER_LAYER_CHANGE
;0.2
G1 X101.556 Y85.325
G1 Z0.200
G1 E0.80000 F2100.00000
M204 S1000
G1 F1200.000
G1 X101.790 Y84.679 E0.02154
G1 X102.200 Y84.127 E0.02154
G1 X102.753 Y83.714 E0.02166
G1 X103.398 Y83.478 E0.02154
G1 X110.671 Y83.428 E0.22803
G1 X138.734 Y86.223 E0.88424
G1 X139.315 Y86.425 E0.01929
G1 X139.825 Y86.769 E0.01929
G1 X143.175 Y90.156 E0.14936
G1 X143.506 Y90.801 E0.02272
G1 X143.627 Y91.515 E0.02272
G1 X143.614 Y118.701 E0.85239
G1 X143.434 Y119.387 E0.02225
G1 X143.063 Y119.988 E0.02213
G1 X139.644 Y123.375 E0.15090
G1 X139.110 Y123.666 E0.01906
G1 X138.524 Y123.811 E0.01894
G1 X110.822 Y126.737 E0.87341
G1 X103.621 Y126.727 E0.22578
G1 X103.138 Y126.622 E0.01550
G1 X102.688 Y126.419 E0.01550
G1 X102.289 Y126.127 E0.01550
G1 X101.959 Y125.759 E0.01550
G1 X101.625 Y125.107 E0.02296
G1 X101.507 Y124.389 E0.02284
G1 X101.555 Y85.385 E1.22294
G1 F8640.000
G1 X101.790 Y84.679 E-0.17173
G1 X102.200 Y84.127 E-0.15863
G1 X102.753 Y83.714 E-0.15950
G1 X103.398 Y83.478 E-0.15863
G1 X103.881 Y83.475 E-0.11150
G1 E-0.04000 F2100.00000
G1 Z0.800 F10800.000
G1 X110.671 Y88.306
G1 Z0.200
G1 E0.80000 F2100.00000
G1 F1200.000
G1 X110.671 Y85.805 E0.07842
G1 X109.917 Y85.805 E0.02365
G1 X109.917 Y88.136 E0.07310
G1 X109.163 Y88.136 E0.02365
G1 X109.163 Y85.805 E0.07310
G1 X108.409 Y85.805 E0.02365
G1 X108.409 Y124.195 E1.20369
G1 X107.654 Y124.195 E0.02365
G1 X107.654 Y85.805 E1.20369
G1 X106.900 Y85.805 E0.02365
G1 X106.900 Y124.195 E1.20369
G1 X106.146 Y124.195 E0.02365
G1 X106.146 Y85.805 E1.20369
G1 X105.392 Y85.805 E0.02365
G1 X105.392 Y124.195 E1.20369
G1 X104.638 Y124.195 E0.02365
G1 X104.638 Y85.805 E1.20369
G1 X103.884 Y85.805 E0.02365
G1 X103.884 Y124.365 E1.20901
G1 X109.163 Y121.694 F10800.000
G1 F1200.000
G1 X109.163 Y124.195 E0.07842
G1 X109.917 Y124.195 E0.02365
G1 X109.917 Y121.864 E0.07310
G1 X110.671 Y121.864 E0.02365
G1 X110.671 Y124.365 E0.07842
G1 F8640.000
G1 X110.671 Y121.864 E-0.57751
G1 X109.917 Y121.864 E-0.17414
G1 X109.917 Y121.900 E-0.00836
G1 E-0.04000 F2100.00000
G1 Z0.800 F10800.000
G1 X109.537 Y120.663
G1 Z0.200
G1 E0.80000 F2100.00000
G1 F1200.000
G1 X109.537 Y89.337 E0.98220
G1 X137.925 Y89.338 E0.89010
G1 X140.463 Y91.876 E0.11252
G1 X140.463 Y118.124 E0.82299
G1 X137.924 Y120.663 E0.11258
G1 X109.597 Y120.663 E0.88817
G1 X109.160 Y121.040 F10800.000
G1 F1200.000
G1 X109.160 Y88.960 E1.00585
G1 X138.082 Y88.961 E0.90682
G1 X140.840 Y91.720 E0.12231
G1 X140.840 Y118.280 E0.83278
G1 X138.080 Y121.040 E0.12238
G1 X109.220 Y121.040 E0.90489
G1 X109.350 Y120.688 F10800.000
G1 F8640.000
G1 X109.214 Y117.749 E-0.76000
G1 E-0.04000 F2100.00000
G1 Z0.800 F10800.000
G1 X140.350 Y92.164
G1 Z0.200
G1 E0.80000 F2100.00000
G1 F1200.000
G1 X137.807 Y89.621 E0.11312
G1 X137.272 Y89.621 E0.01683
G1 X140.180 Y92.529 E0.12937
G1 X140.180 Y93.064 E0.01683
G1 X136.737 Y89.621 E0.15318
G1 X136.202 Y89.621 E0.01683
G1 X140.180 Y93.599 E0.17698
G1 X140.180 Y94.134 E0.01683
G1 X135.667 Y89.621 E0.20079
G1 X135.132 Y89.621 E0.01683
G1 X140.180 Y94.669 E0.22459
G1 X140.180 Y95.204 E0.01683
G1 X134.597 Y89.621 E0.24840
G1 X134.062 Y89.621 E0.01683
G1 X140.180 Y95.739 E0.27221
G1 X140.180 Y96.275 E0.01683
G1 X133.527 Y89.621 E0.29601
G1 X132.992 Y89.621 E0.01683
G1 X140.180 Y96.810 E0.31982
G1 X140.180 Y97.345 E0.01683
G1 X132.457 Y89.621 E0.34362
G1 X131.921 Y89.621 E0.01683
G1 X140.180 Y97.880 E0.36743
G1 X140.180 Y98.415 E0.01683
G1 X131.386 Y89.621 E0.39123
G1 X130.851 Y89.621 E0.01683
G1 X140.180 Y98.950 E0.41504
G1 X140.180 Y99.485 E0.01683
G1 X130.316 Y89.621 E0.43884
G1 X129.781 Y89.621 E0.01683
G1 X140.180 Y100.020 E0.46265
G1 X140.180 Y100.555 E0.01683
G1 X129.246 Y89.621 E0.48646
G1 X128.711 Y89.621 E0.01683
G1 X140.180 Y101.090 E0.51026
G1 X140.180 Y101.625 E0.01683
G1 X128.176 Y89.621 E0.53407
G1 X127.641 Y89.621 E0.01683
G1 X140.180 Y102.160 E0.55787
G1 X140.180 Y102.695 E0.01683
G1 X127.106 Y89.621 E0.58168
G1 X126.571 Y89.621 E0.01683
G1 X140.180 Y103.230 E0.60548
G1 X140.180 Y103.765 E0.01683
G1 X126.036 Y89.621 E0.62929
G1 X125.500 Y89.621 E0.01683
G1 X140.180 Y104.300 E0.65309
G1 X140.180 Y104.835 E0.01683
G1 X124.965 Y89.621 E0.67690
G1 X124.430 Y89.621 E0.01683
G1 X140.180 Y105.370 E0.70070
G1 X140.180 Y105.905 E0.01683
G1 X123.895 Y89.621 E0.72451
G1 X123.360 Y89.621 E0.01683
G1 X140.180 Y106.441 E0.74832
M73 Q1 S90
G1 X140.180 Y106.976 E0.01683
M73 P1 R90
G1 X122.825 Y89.621 E0.77212
G1 X122.290 Y89.621 E0.01683
G1 X140.180 Y107.511 E0.79593
G1 X140.180 Y108.046 E0.01683
G1 X121.755 Y89.620 E0.81973
G1 X121.220 Y89.620 E0.01683
G1 X140.180 Y108.581 E0.84354
G1 X140.180 Y109.116 E0.01683
G1 X120.685 Y89.620 E0.86734
G1 X120.150 Y89.620 E0.01683
G1 X140.180 Y109.651 E0.89115
G1 X140.180 Y110.186 E0.01683
G1 X119.615 Y89.620 E0.91495
G1 X119.080 Y89.620 E0.01683
G1 X140.180 Y110.721 E0.93876
G1 X140.180 Y111.256 E0.01683
G1 X118.544 Y89.620 E0.96257
G1 X118.009 Y89.620 E0.01683
G1 X140.180 Y111.791 E0.98637
G1 X140.180 Y112.326 E0.01683
G1 X117.474 Y89.620 E1.01018
G1 X116.939 Y89.620 E0.01683
G1 X140.180 Y112.861 E1.03398
G1 X140.180 Y113.396 E0.01683
G1 X116.404 Y89.620 E1.05779
G1 X115.869 Y89.620 E0.01683
G1 X140.180 Y113.931 E1.08159
G1 X140.180 Y114.466 E0.01683
G1 X115.334 Y89.620 E1.10540
G1 X114.799 Y89.620 E0.01683
G1 X140.180 Y115.001 E1.12920
G1 X140.180 Y115.536 E0.01683
G1 X114.264 Y89.620 E1.15301
G1 X113.729 Y89.620 E0.01683
G1 X140.180 Y116.071 E1.17681
G1 X140.180 Y116.607 E0.01683
G1 X113.194 Y89.620 E1.20062
G1 X112.659 Y89.620 E0.01683
G1 X140.180 Y117.142 E1.22443
G1 X140.180 Y117.677 E0.01683
G1 X112.124 Y89.620 E1.24823
G1 X111.588 Y89.620 E0.01683
G1 X140.078 Y118.109 E1.26748
G1 X139.810 Y118.377 E0.01190
G1 X111.053 Y89.620 E1.27938
G1 X110.518 Y89.620 E0.01683
G1 X139.543 Y118.644 E1.29129
G1 X139.275 Y118.912 E0.01190
G1 X109.983 Y89.620 E1.30319
G1 X109.820 Y89.620 E0.00514
G1 X109.820 Y89.992 E0.01169
G1 X139.008 Y119.179 E1.29856
G1 X138.740 Y119.447 E0.01190
G1 X109.820 Y90.527 E1.28665
G1 X109.820 Y91.062 E0.01683
G1 X138.473 Y119.714 E1.27475
G1 X138.205 Y119.982 E0.01190
G1 X109.820 Y91.597 E1.26285
G1 X109.820 Y92.132 E0.01683
G1 X137.937 Y120.249 E1.25095
G1 X137.807 Y120.380 E0.00581
G1 X137.533 Y120.380 E0.00861
G1 X109.820 Y92.667 E1.23295
G1 X109.820 Y93.202 E0.01683
G1 X136.998 Y120.380 E1.20915
G1 X136.463 Y120.380 E0.01683
G1 X109.820 Y93.737 E1.18535
G1 X109.820 Y94.272 E0.01683
G1 X135.928 Y120.380 E1.16154
M73 Q2 S89
M73 P2 R89
G1 X135.393 Y120.380 E0.01683
G1 X109.820 Y94.807 E1.13774
G1 X109.820 Y95.342 E0.01683
G1 X134.858 Y120.380 E1.11393
G1 X134.323 Y120.380 E0.01683
G1 X109.820 Y95.877 E1.09013
G1 X109.820 Y96.412 E0.01683
G1 X133.788 Y120.380 E1.06632
G1 X133.253 Y120.380 E0.01683
G1 X109.820 Y96.947 E1.04252
G1 X109.820 Y97.482 E0.01683
G1 X132.718 Y120.380 E1.01872
G1 X132.183 Y120.380 E0.01683
G1 X109.820 Y98.017 E0.99491
G1 X109.820 Y98.552 E0.01683
G1 X131.648 Y120.380 E0.97111
G1 X131.112 Y120.380 E0.01683
G1 X109.820 Y99.088 E0.94730
G1 X109.820 Y99.623 E0.01683
G1 X130.577 Y120.380 E0.92350
G1 X130.042 Y120.380 E0.01683
G1 X109.820 Y100.158 E0.89969
G1 X109.820 Y100.693 E0.01683
G1 X129.507 Y120.380 E0.87589
G1 X128.972 Y120.380 E0.01683
G1 X109.820 Y101.228 E0.85209
G1 X109.820 Y101.763 E0.01683
G1 X128.437 Y120.380 E0.82828
G1 X127.902 Y120.380 E0.01683
G1 X109.820 Y102.298 E0.80448
G1 X109.820 Y102.833 E0.01683
G1 X127.367 Y120.380 E0.78067
G1 X126.832 Y120.380 E0.01683
G1 X109.820 Y103.368 E0.75687
G1 X109.820 Y103.903 E0.01683
G1 X126.297 Y120.380 E0.73306
G1 X125.762 Y120.380 E0.01683
G1 X109.820 Y104.438 E0.70926
G1 X109.820 Y104.973 E0.01683
G1 X125.227 Y120.380 E0.68546
G1 X124.692 Y120.380 E0.01683
G1 X109.820 Y105.508 E0.66165
G1 X109.820 Y106.043 E0.01683
G1 X124.157 Y120.380 E0.63785
G1 X123.622 Y120.380 E0.01683
G1 X109.820 Y106.578 E0.61404
G1 X109.820 Y107.113 E0.01683
G1 X123.087 Y120.380 E0.59024
G1 X122.552 Y120.380 E0.01683
G1 X109.820 Y107.648 E0.56643
G1 X109.820 Y108.183 E0.01683
G1 X122.017 Y120.380 E0.54263
G1 X121.482 Y120.380 E0.01683
G1 X109.820 Y108.718 E0.51882
G1 X109.820 Y109.254 E0.01683
G1 X120.946 Y120.380 E0.49502
G1 X120.411 Y120.380 E0.01683
G1 X109.820 Y109.789 E0.47122
G1 X109.820 Y110.324 E0.01683
G1 X119.876 Y120.380 E0.44741
G1 X119.341 Y120.380 E0.01683
G1 X109.820 Y110.859 E0.42361
G1 X109.820 Y111.394 E0.01683
G1 X118.806 Y120.380 E0.39980
G1 X118.271 Y120.380 E0.01683
G1 X109.820 Y111.929 E0.37600
G1 X109.820 Y112.464 E0.01683
G1 X117.736 Y120.380 E0.35219
G1 X117.201 Y120.380 E0.01683
G1 X109.820 Y112.999 E0.32839
G1 X109.820 Y113.534 E0.01683
G1 X116.666 Y120.380 E0.30459
G1 X116.131 Y120.380 E0.01683
G1 X109.820 Y114.069 E0.28078
G1 X109.820 Y114.604 E0.01683
G1 X115.596 Y120.380 E0.25698
G1 X115.061 Y120.380 E0.01683
G1 X109.820 Y115.139 E0.23317
G1 X109.820 Y115.674 E0.01683
G1 X114.526 Y120.380 E0.20937
G1 X113.991 Y120.380 E0.01683
G1 X109.820 Y116.209 E0.18556
G1 X109.820 Y116.744 E0.01683
G1 X113.456 Y120.380 E0.16176
G1 X112.921 Y120.380 E0.01683
G1 X109.820 Y117.279 E0.13796
G1 X109.820 Y117.814 E0.01683
G1 X112.386 Y120.380 E0.11415
G1 X111.851 Y120.380 E0.01683
G1 X109.820 Y118.349 E0.09035
G1 X109.820 Y118.884 E0.01683
G1 X111.316 Y120.380 E0.06654
G1 X110.780 Y120.380 E0.01683
G1 X109.820 Y119.420 E0.04274
G1 X109.820 Y119.955 E0.01683
G1 X110.415 Y120.550 E0.02648
M106 S255
;BEFORE_LAYER_CHANGE
G92 E0.0
;0.35


G1 F8640.000
G1 X109.820 Y119.955 E-0.19438
G1 X109.820 Y119.420 E-0.12355
G1 X110.780 Y120.380 E-0.31369
G1 X111.316 Y120.380 E-0.12355
G1 X111.301 Y120.365 E-0.00485
G1 E-0.04000 F2100.00000
G1 Z0.800 F10800.000
;AFTER_LAYER_CHANGE
;0.35
G1 X101.625 Y125.107
G1 Z0.350
G1 E0.80000 F2100.00000
G1 F3000.000
G1 X101.507 Y124.389 E0.01762
G1 X101.556 Y85.325 E0.94476
G1 X101.790 Y84.679 E0.01662
G1 X102.200 Y84.127 E0.01662
G1 X102.753 Y83.714 E0.01671
G1 X103.398 Y83.478 E0.01662
G1 X110.671 Y83.428 E0.17589
G1 X138.734 Y86.223 E0.68205
G1 X139.315 Y86.425 E0.01488
G1 X139.825 Y86.769 E0.01488
G1 X143.175 Y90.156 E0.11521
G1 X143.506 Y90.801 E0.01753
G1 X143.627 Y91.515 E0.01753
G1 X143.614 Y118.701 E0.65748
G1 X143.434 Y119.387 E0.01716
G1 X143.063 Y119.988 E0.01707
G1 X139.644 Y123.375 E0.11640
G1 X139.110 Y123.666 E0.01470
G1 X138.524 Y123.811 E0.01461
G1 X110.822 Y126.737 E0.67370
G1 X103.621 Y126.727 E0.17415
G1 X103.138 Y126.622 E0.01195
G1 X102.688 Y126.419 E0.01195
G1 X102.289 Y126.127 E0.01195
G1 X101.959 Y125.759 E0.01195
G1 X101.653 Y125.161 E0.01626
G1 F8640.000
G1 X101.507 Y124.389 E-0.18145
G1 X101.510 Y121.883 E-0.57855
G1 E-0.04000 F2100.00000
G1 Z0.950 F10800.000
G1 X109.393 Y120.807
G1 Z0.350
G1 E0.80000 F2100.00000
M204 S800
G1 F2700.000
G1 X109.393 Y89.193 E0.82374
G1 X137.984 Y89.193 E0.74496
G1 X140.607 Y91.816 E0.09667
G1 X140.607 Y118.184 E0.68702
G1 X137.984 Y120.807 E0.09667
G1 X109.453 Y120.807 E0.74340
M204 S1000
G1 X108.975 Y121.225 F10800.000
M204 S800
G1 F1500.000
G1 X108.975 Y88.775 E0.84551
G1 X138.157 Y88.775 E0.76035
G1 X141.025 Y91.643 E0.10569
G1 X141.025 Y118.357 E0.69604
G1 X138.157 Y121.225 E0.10569
G1 X109.035 Y121.225 E0.75879
M204 S1000
G1 X109.165 Y120.873 F10800.000
G1 F8640.000
G1 X109.029 Y117.934 E-0.76000
G1 E-0.04000 F2100.00000
G1 Z0.950 F10800.000
G1 X109.518 Y90.165
G1 Z0.350
G1 E0.80000 F2100.00000
G1 F4800.000
G1 X110.177 Y89.506 E0.02435
G1 X110.770 Y89.506 E0.01548
G1 X109.706 Y90.570 E0.03930
G1 X109.706 Y91.162 E0.01548
G1 X111.362 Y89.506 E0.06120
G1 X111.955 Y89.506 E0.01548
G1 X109.706 Y91.755 E0.08310
G1 X109.706 Y92.347 E0.01548
G1 X112.547 Y89.506 E0.10499
G1 X113.140 Y89.506 E0.01548
G1 X109.706 Y92.940 E0.12689
G1 X109.706 Y93.533 E0.01548
G1 X113.733 Y89.506 E0.14879
G1 X114.325 Y89.506 E0.01548
G1 X109.706 Y94.125 E0.17069
G1 X109.706 Y94.718 E0.01548
G1 X114.918 Y89.506 E0.19258
M73 Q3 S88
M73 P3 R88
G1 X115.510 Y89.506 E0.01548
G1 X109.706 Y95.310 E0.21448
G1 X109.706 Y95.903 E0.01548
G1 X116.103 Y89.506 E0.23638
G1 X116.695 Y89.506 E0.01548
G1 X109.706 Y96.495 E0.25828
G1 X109.706 Y97.088 E0.01548
G1 X117.288 Y89.506 E0.28017
G1 X117.880 Y89.506 E0.01548
G1 X109.706 Y97.680 E0.30207
G1 X109.706 Y98.273 E0.01548
G1 X118.473 Y89.506 E0.32397
G1 X119.066 Y89.506 E0.01548
G1 X109.706 Y98.866 E0.34586
G1 X109.706 Y99.458 E0.01548
G1 X119.658 Y89.506 E0.36776
G1 X120.251 Y89.506 E0.01548
G1 X109.706 Y100.051 E0.38966
G1 X109.706 Y100.643 E0.01548
G1 X120.843 Y89.506 E0.41156
G1 X121.436 Y89.506 E0.01548
G1 X109.706 Y101.236 E0.43345
G1 X109.706 Y101.828 E0.01548
G1 X122.028 Y89.506 E0.45535
G1 X122.621 Y89.506 E0.01548
G1 X109.706 Y102.421 E0.47725
G1 X109.706 Y103.013 E0.01548
G1 X123.213 Y89.506 E0.49915
G1 X123.806 Y89.506 E0.01548
G1 X109.706 Y103.606 E0.52104
G1 X109.706 Y104.199 E0.01548
G1 X124.399 Y89.506 E0.54294
G1 X124.991 Y89.506 E0.01548
G1 X109.706 Y104.791 E0.56484
G1 X109.706 Y105.384 E0.01548
G1 X125.584 Y89.506 E0.58674
G1 X126.176 Y89.506 E0.01548
G1 X109.706 Y105.976 E0.60863
G1 X109.706 Y106.569 E0.01548
G1 X126.769 Y89.506 E0.63053
G1 X127.361 Y89.506 E0.01548
G1 X109.706 Y107.161 E0.65243
G1 X109.706 Y107.754 E0.01548
G1 X127.954 Y89.506 E0.67433
G1 X128.547 Y89.506 E0.01548
G1 X109.706 Y108.347 E0.69622
G1 X109.706 Y108.939 E0.01548
G1 X129.139 Y89.506 E0.71812
G1 X129.732 Y89.506 E0.01548
G1 X109.706 Y109.532 E0.74002
G1 X109.706 Y110.124 E0.01548
G1 X130.324 Y89.506 E0.76191
G1 X130.917 Y89.506 E0.01548
G1 X109.706 Y110.717 E0.78381
G1 X109.706 Y111.309 E0.01548
G1 X131.509 Y89.506 E0.80571
G1 X132.102 Y89.506 E0.01548
G1 X109.706 Y111.902 E0.82761
G1 X109.706 Y112.494 E0.01548
G1 X132.694 Y89.506 E0.84950
G1 X133.287 Y89.506 E0.01548
G1 X109.706 Y113.087 E0.87140
G1 X109.706 Y113.680 E0.01548
G1 X133.880 Y89.506 E0.89330
G1 X134.472 Y89.506 E0.01548
G1 X109.706 Y114.272 E0.91520
G1 X109.706 Y114.865 E0.01548
G1 X135.065 Y89.506 E0.93709
G1 X135.657 Y89.506 E0.01548
G1 X109.706 Y115.457 E0.95899
G1 X109.706 Y116.050 E0.01548
G1 X136.250 Y89.506 E0.98089
G1 X136.842 Y89.506 E0.01548
G1 X109.706 Y116.642 E1.00279
G1 X109.706 Y117.235 E0.01548
G1 X137.435 Y89.506 E1.02468
G1 X137.854 Y89.506 E0.01095
G1 X137.941 Y89.593 E0.00321
G1 X109.706 Y117.828 E1.04337
G1 X109.706 Y118.420 E0.01548
G1 X138.237 Y89.889 E1.05432
G1 X138.533 Y90.186 E0.01095
G1 X109.706 Y119.013 E1.06527
G1 X109.706 Y119.605 E0.01548
G1 X138.830 Y90.482 E1.07622
G1 X139.126 Y90.778 E0.01095
G1 X109.706 Y120.198 E1.08717
G1 X109.706 Y120.494 E0.00774
G1 X110.003 Y120.494 E0.00775
G1 X139.422 Y91.074 E1.08716
G1 X139.718 Y91.371 E0.01095
G1 X110.595 Y120.494 E1.07621
G1 X111.188 Y120.494 E0.01548
G1 X140.015 Y91.667 E1.06526
